X: 8
T: Waiting for Nancy
C: Curtis Carlisle Bouterse
L: 1/8
M: 4/4
K: Dmix
|: "A"b2 a2 b2 a2 | b2 a2 e2 ef | "G"g2 f2 e2 ef | gagf e4 | 
   "A"b2 a2 b2 a2 | b2 a2 e2 ef | "G"g2 f2 e2 ^c2 |1 "D"d4 d4 :|2 "D"d4  |
|: d2 ^c2 | "C"c4 e3 f | g2 f2 e3 f | g2 f2 e3 f | gagf e4 |
            "C"c4 e3 f | g2 f2 e3 f | gagf e2 ^c2 |1 "D"d4 :|2 "D"d4 d4 ||

